X:1
T:01- Henry Martin
L:1/8
K:F
Q:1/4=215
R:
M:3/4
D2 | "Dm"D2 A2 A2 | A2 G2 A2 | F2 G2 E2 | D4 D2 | "Dm"F2 EF/2E/2 D2 |
"C"G2 F2 G2 | "F"A6- | "C/E"A4 A2 | "Dm"A2 d2 d2 | "Am"c2 =B2 A2 |
"Dm/F"A2 D2 E2 | "Dm"F2 E2 D2 | "C"G2 F2 G2 | "Am"A6 |
"Dm"d3 e d2 | "Am"c2 A2 "Dm/A"F2 | "C"G2 E2 C2 | "Dm"D6- | D4  |]

